X:14
T:3. Music in the Glen
S:Mike Rafferty
Z:Lesl
M:C|
L:1/8
K:G
(3DEF|:G2BG EGdc|BDGB AGAB|c2ed B2dB|cABG AGED|
G2BG EGdc|BDGB ~A3B|cdef ~g3e|1 dcBA G3D:|2  dcBA ~G3A||
|:(3BAG dg egdG|BGdB c~A3|BGdg egde|gdBG AGE2|
BGdg egdf|~g2fg afdf|~g2fg egdB|cABG AGED:|G8||

